X: 5005
T: Breton Connection
R: reel
M: 4/4
K: Bminor
|:f>gf>efdB2|1 ef/e/cAd/c/d/e/f2:|2 ef/e/cAd/c/d/c/B2||
f/|:faB>ffac2|1 ef/e/cAd/c/d/e/f2:|2 ef/e/cAd/c/d/c/B2||

